X:1
T:Title
%%score { ( 1 2 ) | ( 3 4 5 ) }
L:1/8
Q:1/4=207
M:6/4
K:Eb
V:1 treble nm="Grand Piano"
V:2 treble 
V:3 bass 
V:4 bass 
V:5 bass 
V:1
 G6 z6 | B6 z6 | [Ff]2 [Gg]2 [Aa]2 [Bb]2 [cc']2 [ad']2 | [ge']2 .G2 .G2 .G2 .G2 .G2 | G6 z6 | %5
w: Charles~H.~Gabriel|||||
 B6 z6 | G6 F6 | E12[K:bass] | .c6 B6 | z2 D2 [B,FB]2 z2 E2 E2 | F2 G2 F2 E2 D2 E2 | B6 .B6 | %12
w: |||||||
 G6 z6 | B6 z6 | G6 F6 | z2 F2 E2 A2 G2 E2 | .e6 .e6 | .e6 G6 | F2 G2 =A2 [GAe]2 [Ad]2 [FAc]2 | %19
w: |||||||
 [DB]2- [D-B-c][D-Bc] [DB]2 [B,B]2- [B,Bc]2 d2 | [Ge]6 d6[K:bass] | %21
w: ||
 [Ge]3 [Ac] [GB]2 z2 [_G=A]2 [=GB]2 | [Ad]4 [B,DA]2 [Ad]4 [B,DA]2 | [Ad]12 | %24
w: |||
 [FAe]2 [Ae]2 [Ae]2 [FAc]2 [Ac]2 [Ac]2 | [FAd]3 [FAc] [DFA]2 z2 [D=EG]2 [DFA]2 | %26
w: ||
 [EGc]4 [EG]2 [EGc]4 [EG]2 | [EGB]12 | [Ge]6 d6[K:bass] | [Ge]3 [Ac] [GB]2 z2 [F=A]2 [GB]2 | %30
w: ||||
 [=EGc]4 [EG]2 [CGc]4 [GB]2 | z2 [FA]4- [FA]4 z2 | =A3 A A2 B2 B2 B2 | c2 c2 c2 [Ad]2 [Be]2 [cf]2 | %34
w: ||||
 [Bg]6 [Af]6 | [Ge]12 |] %36
w: ||
V:2
 z2 E2 E2 A2 G2 F2 | z2 E2 E2 [Cc]2 [Dd]2 [Ee]2 | x12 | x12 | z2 E2 E2 A2 G2 F2 | %5
 z2 E2 E2 c2 d2 e2 | z2 E2 E2 z2 D2 D2 | z2[K:bass] B,2 B,2 .[E,G,B,]6 | z2 A2 [E=Ad]2 B,2 E2 E2 | %9
 .A6 [G,G]6 | x12 | z2 F2 F2 z2 G2 F2 | z2 E2 E2 A2 G2 F2 | z2 E2 E2 c2 d2 e2 | z2 E2 E2 z2 D2 D2 | %15
 [B,B]12 | E2 E2 [Ee]2 E2 [A,E]2 [B,E]2 | E2 [B,E]2 [Ee]2 E2 E2 E2 | x12 | .[B,F]6 .[CD]6 | %20
 z2 G,2 C2 z2[K:bass] A,2 F,2 | x12 | x12 | x12 | x12 | x12 | x12 | x12 | %28
 z2 G,2 C2 z2[K:bass] A,2 F,2 | x12 | x12 | .[CGB]6 z2 A,2 A2 | x12 | x12 | x12 | x12 |] %36
V:3
 z2 B,2 B,2 F,2 [G,B,D]2 [A,B,D]2 | z2 B,2 B,2 A,2 B,2[K:treble] C2 | D2 E2 F2 G2 A2 [B,F]2 | %3
 E2[K:bass] .[G,B,E]2 .[G,B,E]2 .[G,B,E]2 .[G,B,E]2 .[G,B,E]2 | z2 B,2 B,2 F,2 [G,B,D]2 [A,B,D]2 | %5
 B,2 B,2 B,2 [A,C]2 [B,D]2 [CE]2 | B,6 z2 B,2 B,2 | z2 G,2 G,2 z2[K:treble] FGAB | %8
 z2 E2[K:bass] _G,2 z2 B,2 B,2 | z2 B,2 D,2 z2 B,2 B,2 | [D,B,]6 [C,F,=A,]6 | %11
 z2[K:treble] .D4 [FA]2 E2 D2 | z2 B,2 B,2 F,2 [G,B,D]2 [A,B,D]2 | %13
 B,2 B,2 B,2 [A,C]2 [B,D]2 [CE]2 | B,6 z2 B,2 B,2 | G,2 A,2 G,2 F,2 E,2 [_D,G,]2 | %16
 [C,A,]2 [C,A,]2 [C,A,]2 [C,_G,A,]2 [C,G,]2 [C,G,]2 | %17
 [B,,G,B,]2 [B,,G,]2 [B,,G,B,]2 [C,G,C]2 [C,G,C]2 [C,G,]2 | [F,=A,CE]6 z2[K:treble] F2 E2 | %19
 z2 B,B, B,2 z2 D2 D2 | .[E,B,]6 [B,A]6 | [E,B,]3 [E,E] [E,E]2 z2 [E,E]2 [E,E]2 | %22
 .[F,B,]6 .[B,,B,]6 | .F,4 B,2- B,6 | z2[K:treble] F2 F2[K:bass] z2[K:treble] F2 F2 | %25
 B,,3 B,, B,,2 z2 B,,2 B,,2 | z4 B,2 z4 B,2 | E,4 E,2 z2[K:treble] =ABcd | .[E,B,]6 [B,A]6 | %29
 [E,B,]3 [E,E] [E,E]2 z2 [E,E]2 [E,E]2 | z4 C2 z4 C2 | z2 C4 z6 | %32
 [_G,CE]3 [G,CE] [G,CE]2[K:treble] [=G,B,E]2 [G,B,E]2 [G,E]2 | %33
 [A,EA]2 [A,EA]2 [A,EA]2[K:bass] [F,B,]2 [G,E]2 [A,E]2 | [B,E]6 [B,,D]6 | [E,B,]12 |] %36
V:4
 E,6 z6 | G,6 z6[K:treble] | x12 | x2[K:bass] x10 | E,6 z6 | G,6 z6 | z6 [B,,A,]6 | %7
 E,6 .E,,6[K:treble] | .A,6[K:bass] =G,6 | .F,6 E,6 | x12 | [B,,B,]12[K:treble] | E,6 z6 | G,6 z6 | %14
 z6 A,6 | x12 | x12 | x12 | z6 [F,,F,]6[K:treble] | B,,6 .B,,6 | x12 | x12 | x12 | %23
 .B,2- .[B,C]4 A,2 F,2 D,2 | B,,6[K:treble][K:bass] B,,6[K:treble] | x12 | E,6 E,6 | %27
 z6 .E,6[K:treble] | x12 | x12 | C,6 =E,6 | z4 A,2 C4 [F,CF]2 | x6[K:treble] x6 | x6[K:bass] x6 | %34
 x12 | x12 |] %36
V:5
 x12 | x10[K:treble] x2 | x12 | x2[K:bass] x10 | x12 | x12 | x12 | x8[K:treble] x4 | %8
 x4[K:bass] x8 | x12 | x12 | x2[K:treble] x10 | x12 | x12 | x12 | x12 | x12 | x12 | %18
 x8[K:treble] x4 | x12 | x12 | x12 | x12 | x12 | x2[K:treble] x4[K:bass] x2[K:treble] x4 | x12 | %26
 x12 | x8[K:treble] x4 | x12 | x12 | x12 | .F,6 z6 | x6[K:treble] x6 | x6[K:bass] x6 | x12 | x12 |] %36

